X: 92
T: la Camergo
%R: jig
B: Stewart "A Select Collection of Airs, Jigs, Marches and Reels", ca.1784, p.44,45 #92
F: http://imslp.org/wiki/A_Select_Collection_of_Airs,_Jigs,_Marches_and_Reels_%28Various%29
Z: 2017 John Chambers <jc:trillian.mit.edu>
M: 6/8
L: 1/8
K: Am
c2d |\
e2e ede | c2c cBc | def edc | B2B Bcd |\
e2e ede | c2c def | edc BA^G | A3 :|
|: EAB |\
c3 cBc | d3 dcd | efe edc | B3 BAB |\
c3 cBc | d3 dcd | efe ecd | efe ecd |
e2e ede | c2c cBc | def edc | B3 Bcd |\
e2e ede | c2c def | edc BA^G | A3 :|
|: Ac'b |\
a^ga bc'b | a^ga bc'b | abc' ba^g | ^f3 fef |\
g2g g^fg | a2a aga | bc'b ^f^ga | ^g2g acd |
e2e ede | c2c cBc | def edc | B2B Bcd |\
e2e ede | c2c def | edc BA^G | A3 :|
